; Generated from logotipo_GTEC.svg with svg2gcode tool (using circular interpolation)
; https://github.com/sameer/svg2gcode
; https://sameer.github.io/svg2gcode/

G21
F300

G90

;svg#svg114 > g#Símbolo_del_logo > path#path113
G0 X12.278253797836904 Y42.850856688145605
G2 X13.359407048054665 Y40.23813328155137 R3.6944129746625527
G2 X12.278253797836905 Y37.547813141747184 R3.932895346628501
G3 X8.979809859030944 Y33.550582218326 R37.483565407019796
G3 X6.315505917783309 Y28.976813079849553 R28.749085330213155
G1 X5.298965625139428 Y26.43231928324415
G3 X4.534331346559804 Y23.694002056809182 R25.952759241445285
G3 X4.052726753602664 Y20.745298441856068 R27.09755446503018
G3 X3.8852755178262344 Y17.569645479696224 R29.6358463593341
G1 X3.9846248803047866 Y15.028332756345371
G1 X3.9875347738918023 Y14.957193447189491
G2 X3.8596674331623135 Y14.734690493927587 R0.1814629728560189
G1 X3.5293193884130787 Y14.924378024804962
G1 X3.1062832171193646 Y15.395213190358076
G2 X2.421995760578356 Y16.590961863017476 R4.138932966601013
G2 X0.8582353925176557 Y26.311417524774843 R30.73118041574341
G2 X1.2430868246112703 Y31.09144480663571 R29.376528393455665
G2 X2.394231730708409 Y35.57162937240361 R25.515724276182095
G2 X4.306556025533526 Y39.556567805199826 R20.80302409551042
G2 X6.974945623811073 Y42.850856688145605 R16.69015272380773
G2 X9.661212457255798 Y43.93457629988806 R3.9120980068966476
G2 X12.278253797836909 Y42.850856688145605 R3.7001014104824463
G1 X12.278253797836904 Y42.850856688145605

;svg#svg114 > g#Símbolo_del_logo > path#path109
G0 X43.21333620190299 Y37.984640208309266
G2 X40.60061277348189 Y36.90348696712355 R3.6944130337570127
G2 X37.91029261120254 Y37.984640208309266 R3.932895411699519
G3 X33.91301780401005 Y41.28290485309748 R37.49223196417303
G3 X29.33931668701543 Y43.94715374999916 R28.752241250344703
G1 X26.794901665388345 Y44.963694682859
G3 X24.056694549965954 Y45.728338546586926 R25.951868725230902
G3 X21.10813350196667 Y46.20995429712953 R27.09515384551006
G3 X17.932656682608894 Y46.377410890433374 R29.63183610061196
G1 X15.390812037671264 Y46.2780044732326
G1 X15.319672727921073 Y46.2750945796699
G2 X15.097169772800367 Y46.40296191933116 R0.18146297361935967
G1 X15.286857305262405 Y46.73330996132064
G1 X15.757692474748914 Y47.156346129080276
G2 X16.953441157397698 Y47.840633579904704 R4.1389330217149904
G2 X26.673710357439838 Y49.40439393490164 R30.729804568890042
G2 X31.453692562124473 Y49.0195425060231 R29.376050327659176
G2 X35.933853997074976 Y47.868397609542725 R25.515606902072093
G2 X39.918783927492406 Y45.9560733306933 R20.803050936061588
G2 X43.21307161857761 Y43.28768375470768 R16.69017823564184
G2 X44.296924920708115 Y40.601288481698404 R3.912326388097667
G2 X43.213336201903005 Y37.98464020830926 R3.69956156684332
G1 X43.21333620190299 Y37.984640208309266

;svg#svg114 > g#Símbolo_del_logo > path#path111
G0 X38.34685509808852 Y7.049558062677214
G2 X37.265701847870766 Y9.662281469271434 R3.6944129746625554
G2 X38.34685509808852 Y12.352601609075627 R3.9328953466285435
G3 X41.645299036894485 Y16.349972489496857 R37.48792355900171
G3 X44.30960297814212 Y20.92379864986959 R28.750860187634753
G1 X45.326143270786 Y23.468289856759228
G3 X46.09077754936562 Y26.206583759702486 R25.952792165354317
G3 X46.57238214232276 Y29.155243317387953 R27.09701150673775
G3 X46.73983337809919 Y32.3308314885042 R29.634720753379263
G1 X46.64048401562064 Y34.87208199447745
G1 X46.63757412203363 Y34.94322130363332
G2 X46.76544146276312 Y35.16572425689523 R0.18146297285627425
G1 X47.095789507512364 Y34.97603672601785
G1 X47.51882567880607 Y34.50520156046474
G2 X48.20311313534708 Y33.309452887805335 R4.138932966599688
G2 X49.76687350340778 Y23.588997226048033 R30.731180415743296
G2 X49.38202207131416 Y18.80896994418709 R29.376528393460198
G2 X48.230877165217045 Y14.328785378419225 R25.515724276182166
G2 X46.318552870391926 Y10.343846945623 R20.80302409551119
G2 X43.65016327211437 Y7.049558062677207 R16.690152723808612
G2 X40.96379791499866 Y5.965838450934752 R3.912652632073319
G2 X38.34685509808853 Y7.049558062677207 R3.699982503415214
G1 X38.34685509808852 Y7.049558062677214

;svg#svg114 > g#Símbolo_del_logo > path#path107
G0 X7.411772694022437 Y11.916039125836733
G2 X10.024496122443553 Y12.997192367022452 R3.69441303375694
G2 X12.714816284722886 Y11.916039125836733 R3.9328954116997337
G3 X16.71218719853846 Y8.617595214586224 R37.48792374165771
G3 X21.28601339712128 Y5.953291295596385 R28.750860543475333
G1 X23.83050462526779 Y4.936751011444758
G3 X26.568798551086964 Y4.172116739252948 R25.952792720512047
G3 X29.517458133405757 Y3.6905121503191696 R27.097012149079493
G3 X32.693046331051114 Y3.52306091594164 R29.634721490475595
G1 X35.23429685825416 Y3.6224102775902196
G1 X35.305436168004334 Y3.6253201711529246
G2 X35.527939123125066 Y3.4974528314916458 R0.18146297361930078
G1 X35.33825159066302 Y3.167104789502163
G1 X34.867416421176515 Y2.7440686217425254
G2 X33.67166773852773 Y2.0597811709181073 R4.138933021716569
G2 X23.9513985384856 Y0.49602081592117786 R30.729804568889094
G2 X19.171416333800963 Y0.8808722447997159 R29.37605032766099
G2 X14.691254898850463 Y2.0320171412800923 R25.51560690207263
G2 X10.706324968433034 Y3.944341420129508 R20.803050936063446
G2 X7.412037277347828 Y6.612730996115133 R16.690178235639674
G2 X6.328085458419419 Y9.299225579739206 R3.9124766949659864
G2 X7.411772694022443 Y11.916039125836733 R3.6998102698909716
G1 X7.411772694022437 Y11.916039125836733

;svg#svg114 > g#Acrónimo_GTEC > path#path104
G0 X89.85990563400749 Y27.068726044074392
G1 X85.64853284384739 Y27.06872604407439
G1 X85.5942932621434 Y27.068726044074385
G1 X73.12448113672744 Y27.068726044074385
G1 X73.12448113672744 Y22.853913705895128
G1 X85.6128140949204 Y22.853913705895124
G2 X81.35937255602401 Y15.298836131376486 R12.647125177556523
G2 X77.59179695305339 Y13.063813984113548 R12.642574365214776
G2 X73.12527488670361 Y12.25285369623861 R12.647497792024508
G2 X68.19891526906285 Y13.247434810397063 R12.644131171871729
G2 X64.17594234303502 Y15.959765272667873 R12.672427806921107
G2 X61.463549846388304 Y19.982725762744213 R12.672302985642654
G2 X60.46893151689091 Y24.909196960319257 R12.64415528618715
G2 X61.463512639358186 Y29.83555653680483 R12.644130887625964
G2 X64.17584312428801 Y33.85852942922444 R12.67242769056854
G2 X68.19880364797245 Y36.57092190321162 R12.672303101987337
G2 X73.12527488670361 Y37.565540224399896 R12.644155570425506
G2 X78.32536249091345 Y36.451148340101795 R12.638991857344912
G2 X82.48147043898368 Y33.4319549664354 R12.686095324318837
G1 X85.9292557520814 Y35.89469653854918
G3 X80.28777701529731 Y40.190967467350966 R16.937133223113104
G3 X76.85189381772747 Y41.37086439470702 R16.740658905462567
G3 X73.12527488670362 Y41.784321312426776 R16.922971625540406
G3 X69.72440350448831 Y41.441481787015306 R16.963202807141418
G3 X66.55679539651595 Y40.458200757872234 R16.75312546562626
G3 X61.192831495145505 Y36.84173947093904 R16.896647799994742
G3 X57.576308166283226 Y31.477788016722837 R16.896522938617082
G3 X56.59300077394606 Y28.310144278475995 R16.753012835641115
G3 X56.250150393620025 Y24.909196960319278 R16.963362115252515
G3 X56.59298992189561 Y21.50832560651508 R16.96320239343087
G3 X57.576270959253094 Y18.34071752500515 R16.7531251218123
G3 X61.19273227639849 Y12.976753668445664 R16.89664764485518
G3 X66.55668377542555 Y9.36023036979609 R16.89652309374125
G3 X69.72432754013514 Y8.376922985673549 R16.75301317943847
G3 X73.12527488670362 Y8.034072608211723 R16.963362528966325
G3 X76.52614626891894 Y8.376912133623184 R16.963202807138384
G3 X79.6937543768913 Y9.360193162766269 R16.75312546561653
G3 X85.05771827826175 Y12.97665444969947 R16.896647799990166
G3 X88.67424160712403 Y18.34060590391568 R16.89652293861241
G3 X89.6575489994612 Y21.508249642162525 R16.753012835643087
G3 X90.00039937978723 Y24.90919696031924 R16.963362115259777
G1 X89.85990563400756 Y27.06872604407437
G1 X89.85990563400749 Y27.068726044074392

;svg#svg114 > g#Acrónimo_GTEC > path#path103
G0 X83.28977249803616 Y41.83512131047642
G2 X88.2239869331493 Y37.617663139065414 R19.94062135389933
G1 X95.54633046319147 Y37.617663139065414
G1 X95.54633046319147 Y8.087518439493124
G1 X99.84210533414954 Y8.087518439493124
G1 X99.84210533414955 Y37.61766313906541
G1 X104.76864685282652 Y37.6176631390654
G1 X104.76864685282652 Y41.8351213104764
G1 X83.28977249803616 Y41.83512131047642

;svg#svg114 > g#Acrónimo_GTEC > path#path105
G0 X122.7505233959974 Y12.302330777672367
G1 X110.39104251726718 Y12.30233077767236
G1 X110.3910425172672 Y22.85126787266338
G1 X118.24757978126257 Y22.85126787266338
G1 X118.13380895134684 Y24.962642791600636
G1 X118.24678603128645 Y27.068726044074385
G1 X110.39077793394186 Y27.068726044074385
G1 X110.39077793394188 Y37.6176631390654
G1 X122.74602547946596 Y37.6176631390654
G2 X127.64690241558056 Y41.814483811268744 R19.767642004786964
G1 X127.64690241558057 Y41.8351213104764
G1 X106.17067389404411 Y41.8351213104764
G1 X106.17067389404413 Y8.087518439493103
G1 X127.64690241558061 Y8.087518439493095
G1 X127.64690241558063 Y8.1108017719325
G2 X122.75052339599763 Y12.302330777672346 R19.766515354294135
G1 X122.7505233959974 Y12.302330777672367

;svg#svg114 > g#Acrónimo_GTEC > path#path106
G0 X137.81245836021455 Y12.30629952751999
G2 X132.88609874257378 Y13.300880641678441 R12.644131171871209
G2 X128.86312581654596 Y16.013211103949253 R12.672427806920586
G2 X126.15073331989923 Y20.03617159402559 R12.672302985640655
G2 X125.15611499040185 Y24.962642791600633 R12.644155286185397
G2 X126.15069611286911 Y29.889002368086206 R12.644130887630064
G2 X128.86302659779892 Y33.91197526050582 R12.672427690567508
G2 X132.8859871214834 Y36.624367734493 R12.672303101989478
G2 X137.81245836021455 Y37.618986055681276 R12.644155570428811
G2 X143.56049803129764 Y36.241036108585384 R12.63381388633607
G2 X147.9359455561124 Y32.558829999957595 R12.704753234777984
G1 X151.37764545272628 Y35.13745906762207
G3 X145.51514042049828 Y40.072599503145526 R17.019120976856048
G3 X141.83731644243576 Y41.43869281007163 R16.84119045907762
G3 X137.81272294353994 Y41.919258807246095 R17.012157726321938
G3 X134.39536006198279 Y41.57476253547897 R17.045649938855554
G3 X131.21242317436023 Y40.5867303753334 R16.83408397955232
G3 X125.82256731413216 Y36.95279832084181 R16.977946683414967
G3 X122.1886352292824 Y31.562942505641 R16.97794652753511
G3 X121.20060306088274 Y28.380005644608925 R16.834083634067344
G3 X120.85610678623765 Y24.96264279160069 R17.045649523135324
G3 X121.20060306088273 Y21.545279938592394 R17.045649523121632
G3 X122.1886352292824 Y18.362343077560308 R16.83408363406853
G3 X125.82256731413214 Y12.972487262359486 R16.9779465275305
G3 X131.21242317436025 Y9.338555207867877 R16.977946683415638
G3 X134.39536006198284 Y8.350523047722309 R16.834083979533265
G3 X137.81272294354 Y8.006026775955185 R17.045649938849404
G3 X141.8377422562251 Y8.486725064791237 R17.011536593089776
G3 X145.51596724339018 Y9.853149100871313 R16.842187301077292
G3 X151.37870378602787 Y14.789149432195082 R17.01880799724107
G1 X147.970605971738 Y17.412757664799322
G2 X143.58636105135417 Y13.697478640774644 R12.705123154410263
G2 X137.81245836021466 Y12.306299527519997 R12.633813344779446
G1 X137.81245836021455 Y12.30629952751999
M2
